X: 16540
T: Halloween Jig
R: slip jig
M: 9/8
K: Aminor
B|ABd gfd ede|ABd gde a2a|ABd gfd ede|dBd eBA G2B|
ABd gfd ede|ABd gde a2e|aga age gae|dBd eBA G2e|
geg- ged Bde|geg- ged a2a|geg- ged Bde|dBd eBA G2e|
geg- ged Bde|geg- ged a2e|aga age gae|dBd eBA G2||

